src/Icon/svgs/contents.svg

<svg width="24" height="24" viewBox="0 0 24 24" fill="none" xmlns="http://www.w3.org/2000/svg">
<path fill-rule="evenodd" clip-rule="evenodd" d="M4.88889 2H19.1111C19.602 2 20 2.40701 20 2.90909V21.0909C20 21.593 19.602 22 19.1111 22H4.88889C4.39797 22 4 21.593 4 21.0909V2.90909C4 2.40701 4.39797 2 4.88889 2ZM6 4V10H18V4H6ZM6 12V14H18V12H6ZM6 16V18H16V16H6Z" fill="#1B1C1D"/>
</svg>

<svg xmlns="http://www.w3.org/2000/svg" width="24" height="24" fill="none"  xmlns:v="https://vecta.io/nano"><path fill-rule="evenodd" d="M4.889 2h14.222a.9.9 0 0 1 .889.909v18.182a.9.9 0 0 1-.889.909H4.889A.9.9 0 0 1 4 21.091V2.909A.9.9 0 0 1 4.889 2zM6 4v6h12V4H6zm0 8v2h12v-2H6zm0 4v2h10v-2H6z" fill="#1b1c1d"/></svg>
